dist/svg/ransomware-o.svg

<!-- Generated by Trend Micro Style Portal -->
<svg version="1.1" xmlns="http://www.w3.org/2000/svg" width="16" height="16" viewBox="0 0 16 16">
  <title>ransomware-o</title>
  <path fill="rgb(34,34,34)" d="M8 0c-4.418 0-8 3.582-8 8s3.582 8 8 8c4.418 0 8-3.582 8-8v0c0-4.418-3.582-8-8-8v0zM8 14.5c-3.59 0-6.5-2.91-6.5-6.5s2.91-6.5 6.5-6.5c3.59 0 6.5 2.91 6.5 6.5v0c-0.004 3.588-2.912 6.496-6.5 6.5h-0zM12.75 9.389c0.001 0.020 0.001 0.043 0.001 0.067 0 0.56-0.219 1.068-0.577 1.444l0.001-0.001c-0.305 0.308-0.712 0.515-1.166 0.566l-0.009 0.001v1.534h-1v-1.548c-0.444-0.065-0.833-0.261-1.137-0.546l0.001 0.001c-0.382-0.388-0.617-0.921-0.617-1.509 0-0.042 0.001-0.083 0.004-0.124l-0 0.006h1.083c0.016 0.253 0.091 0.485 0.211 0.687l-0.004-0.007c0.201 0.254 0.51 0.415 0.856 0.415 0.039 0 0.077-0.002 0.115-0.006l-0.005 0c0.018 0.001 0.039 0.001 0.061 0.001 0.217 0 0.425-0.040 0.616-0.113l-0.012 0.004c0.288-0.114 0.487-0.39 0.487-0.712 0-0.020-0.001-0.040-0.002-0.060l0 0.003c0-0.009 0.001-0.019 0.001-0.029 0-0.195-0.093-0.368-0.237-0.478l-0.001-0.001c-0.216-0.141-0.468-0.248-0.739-0.308l-0.015-0.003-0.588-0.158c-0.452-0.096-0.851-0.272-1.201-0.516l0.011 0.007c-0.342-0.323-0.555-0.78-0.555-1.287 0-0.053 0.002-0.105 0.007-0.156l-0 0.007c-0.001-0.021-0.001-0.046-0.001-0.071 0-0.543 0.204-1.038 0.54-1.412l-0.002 0.002c0.289-0.303 0.679-0.506 1.116-0.555l0.008-0.001v-1.534h1v1.57c0.363 0.085 0.679 0.254 0.936 0.487l-0.002-0.002c0.398 0.391 0.644 0.936 0.644 1.537 0 0.027-0.001 0.054-0.001 0.081l0-0.004h-1.090c0-0.009 0.001-0.020 0.001-0.031 0-0.34-0.172-0.64-0.435-0.817l-0.004-0.002c-0.181-0.105-0.399-0.167-0.631-0.167-0.016 0-0.031 0-0.047 0.001l0.002-0c-0.017-0.001-0.037-0.002-0.058-0.002-0.248 0-0.478 0.082-0.663 0.22l0.003-0.002c-0.165 0.135-0.269 0.338-0.269 0.566 0 0.013 0 0.026 0.001 0.039l-0-0.002c-0.001 0.011-0.001 0.023-0.001 0.036 0 0.206 0.105 0.387 0.263 0.494l0.002 0.001c0.208 0.115 0.448 0.21 0.701 0.271l0.020 0.004 0.953 0.275c0.363 0.089 0.679 0.256 0.941 0.484l-0.003-0.002c0.303 0.321 0.489 0.755 0.489 1.232 0 0.043-0.002 0.086-0.005 0.128l0-0.006zM7.265 8.034c0.303 0.321 0.49 0.755 0.49 1.232 0 0.043-0.002 0.086-0.005 0.128l0-0.006c0.001 0.020 0.001 0.043 0.001 0.067 0 0.56-0.219 1.068-0.577 1.444l0.001-0.001c-0.305 0.308-0.712 0.515-1.166 0.566l-0.009 0.001v1.534h-1v-1.548c-0.444-0.065-0.833-0.261-1.137-0.546l0.001 0.001c-0.382-0.388-0.618-0.921-0.618-1.509 0-0.042 0.001-0.083 0.003-0.124l-0 0.006h1.083c0.016 0.253 0.091 0.485 0.211 0.687l-0.004-0.007c0.201 0.254 0.51 0.415 0.856 0.415 0.039 0 0.077-0.002 0.115-0.006l-0.005 0c0.018 0.001 0.039 0.001 0.061 0.001 0.217 0 0.425-0.040 0.616-0.113l-0.012 0.004c0.288-0.114 0.487-0.39 0.487-0.712 0-0.020-0.001-0.040-0.002-0.060l0 0.003c0-0.009 0.001-0.019 0.001-0.029 0-0.195-0.093-0.368-0.237-0.478l-0.001-0.001c-0.216-0.141-0.468-0.248-0.739-0.308l-0.015-0.003-0.588-0.158c-0.452-0.096-0.851-0.272-1.201-0.516l0.011 0.007c-0.342-0.323-0.555-0.78-0.555-1.287 0-0.053 0.002-0.105 0.007-0.156l-0 0.007c-0.001-0.021-0.001-0.046-0.001-0.071 0-0.543 0.204-1.038 0.54-1.412l-0.002 0.002c0.289-0.303 0.679-0.506 1.116-0.555l0.008-0.001v-1.534h1v1.57c0.363 0.085 0.679 0.254 0.936 0.487l-0.002-0.002c0.398 0.391 0.644 0.936 0.644 1.537 0 0.027-0 0.054-0.001 0.081l0-0.004h-1.090c0-0.009 0-0.020 0-0.031 0-0.34-0.173-0.64-0.435-0.817l-0.003-0.002c-0.181-0.105-0.399-0.167-0.631-0.167-0.016 0-0.031 0-0.047 0.001l0.002-0c-0.017-0.001-0.037-0.002-0.058-0.002-0.248 0-0.478 0.082-0.663 0.22l0.003-0.002c-0.165 0.135-0.269 0.338-0.269 0.566 0 0.013 0 0.026 0.001 0.039l-0-0.002c-0.001 0.011-0.001 0.023-0.001 0.036 0 0.206 0.105 0.387 0.263 0.494l0.002 0.001c0.208 0.115 0.448 0.21 0.701 0.271l0.020 0.004 0.953 0.275c0.363 0.089 0.679 0.256 0.941 0.484l-0.003-0.002z"></path>
</svg>

<svg width="16" height="16" viewBox="0 0 16 16" fill="rgb(34, 34, 34)" xmlns="http://www.w3.org/2000/svg"><title>ransomware-o</title><path d="M8 0C3.582 0 0 3.582 0 8C0 12.418 3.582 16 8 16C12.418 16 16 12.418 16 8C16 3.582 12.418 0 8 0ZM8 14.5C4.41 14.5 1.5 11.59 1.5 8C1.5 4.41 4.41 1.5 8 1.5C11.59 1.5 14.5 4.41 14.5 8C14.496 11.588 11.588 14.496 8 14.5ZM12.75 9.389C12.751 9.409 12.751 9.432 12.751 9.456C12.751 10.016 12.532 10.524 12.174 10.9L12.175 10.899C11.87 11.207 11.463 11.414 11.009 11.465L11 11.466V13H10V11.452C9.556 11.387 9.167 11.191 8.863 10.906L8.864 10.907C8.482 10.519 8.247 9.986 8.247 9.398C8.247 9.356 8.248 9.315 8.251 9.274V9.28H9.334C9.35 9.533 9.425 9.765 9.545 9.967L9.541 9.96C9.742 10.214 10.051 10.375 10.397 10.375C10.436 10.375 10.474 10.373 10.512 10.369H10.507C10.525 10.37 10.546 10.37 10.568 10.37C10.785 10.37 10.993 10.33 11.184 10.257L11.172 10.261C11.46 10.147 11.659 9.871 11.659 9.549C11.659 9.529 11.658 9.509 11.657 9.489V9.492C11.657 9.483 11.658 9.473 11.658 9.463C11.658 9.268 11.565 9.095 11.421 8.985L11.42 8.984C11.204 8.843 10.952 8.736 10.681 8.676L10.666 8.673L10.078 8.515C9.626 8.419 9.227 8.243 8.877 7.999L8.888 8.006C8.546 7.683 8.333 7.226 8.333 6.719C8.333 6.666 8.335 6.614 8.34 6.563V6.57C8.339 6.549 8.339 6.524 8.339 6.499C8.339 5.956 8.543 5.461 8.879 5.087L8.877 5.089C9.166 4.786 9.556 4.583 9.993 4.534L10.001 4.533V2.999H11.001V4.569C11.364 4.654 11.68 4.823 11.937 5.056L11.935 5.054C12.333 5.445 12.579 5.99 12.579 6.591C12.579 6.618 12.578 6.645 12.578 6.672V6.668H11.488C11.488 6.659 11.489 6.648 11.489 6.637C11.489 6.297 11.317 5.997 11.054 5.82L11.05 5.818C10.869 5.713 10.651 5.651 10.419 5.651C10.403 5.651 10.388 5.651 10.372 5.652H10.374C10.357 5.651 10.337 5.65 10.316 5.65C10.068 5.65 9.838 5.732 9.653 5.87L9.656 5.868C9.491 6.003 9.387 6.206 9.387 6.434C9.387 6.447 9.387 6.46 9.388 6.473V6.471C9.387 6.482 9.387 6.494 9.387 6.507C9.387 6.713 9.492 6.894 9.65 7.001L9.652 7.002C9.86 7.117 10.1 7.212 10.353 7.273L10.373 7.277L11.326 7.552C11.689 7.641 12.005 7.808 12.267 8.036L12.264 8.034C12.567 8.355 12.753 8.789 12.753 9.266C12.753 9.309 12.751 9.352 12.748 9.394V9.388L12.75 9.389ZM7.265 8.034C7.568 8.355 7.755 8.789 7.755 9.266C7.755 9.309 7.753 9.352 7.75 9.394V9.388C7.751 9.408 7.751 9.431 7.751 9.455C7.751 10.015 7.532 10.523 7.174 10.899L7.175 10.898C6.87 11.206 6.463 11.413 6.009 11.464L6 11.465V12.999H5V11.451C4.556 11.386 4.167 11.19 3.863 10.905L3.864 10.906C3.482 10.518 3.246 9.985 3.246 9.397C3.246 9.355 3.247 9.314 3.249 9.273V9.279H4.332C4.348 9.532 4.423 9.764 4.543 9.966L4.539 9.959C4.74 10.213 5.049 10.374 5.395 10.374C5.434 10.374 5.472 10.372 5.51 10.368H5.505C5.523 10.369 5.544 10.369 5.566 10.369C5.783 10.369 5.991 10.329 6.182 10.256L6.17 10.26C6.458 10.146 6.657 9.87 6.657 9.548C6.657 9.528 6.656 9.508 6.655 9.488V9.491C6.655 9.482 6.656 9.472 6.656 9.462C6.656 9.267 6.563 9.094 6.419 8.984L6.418 8.983C6.202 8.842 5.95 8.735 5.679 8.675L5.664 8.672L5.076 8.514C4.624 8.418 4.225 8.242 3.875 7.998L3.886 8.005C3.544 7.682 3.331 7.225 3.331 6.718C3.331 6.665 3.333 6.613 3.338 6.562V6.569C3.337 6.548 3.337 6.523 3.337 6.498C3.337 5.955 3.541 5.46 3.877 5.086L3.875 5.088C4.164 4.785 4.554 4.582 4.991 4.533L4.999 4.532V2.998H5.999V4.568C6.362 4.653 6.678 4.822 6.935 5.055L6.933 5.053C7.331 5.444 7.577 5.989 7.577 6.59C7.577 6.617 7.577 6.644 7.576 6.671V6.667H6.486C6.486 6.658 6.486 6.647 6.486 6.636C6.486 6.296 6.313 5.996 6.051 5.819L6.048 5.817C5.867 5.712 5.649 5.65 5.417 5.65C5.401 5.65 5.386 5.65 5.37 5.651H5.372C5.355 5.65 5.335 5.649 5.314 5.649C5.066 5.649 4.836 5.731 4.651 5.869L4.654 5.867C4.489 6.002 4.385 6.205 4.385 6.433C4.385 6.446 4.385 6.459 4.386 6.472V6.47C4.385 6.481 4.385 6.493 4.385 6.506C4.385 6.712 4.49 6.893 4.648 7L4.65 7.001C4.858 7.116 5.098 7.211 5.351 7.272L5.371 7.276L6.324 7.551C6.687 7.64 7.003 7.806 7.265 8.034Z" fill="rgb(34, 34, 34)" fill-opacity="1.00"/></svg>
